src/pos-icons/delete-empty.svg

<svg height="24" viewBox="0 0 24 24" width="24" xmlns="http://www.w3.org/2000/svg"><path d="m20.37 8.91-1 1.73-12.13-7 1-1.73 3.04 1.75 1.36-.37 4.33 2.5.37 1.37zm-14.37 10.09v-12h5.07l6.93 4v8a2 2 0 0 1 -2 2h-8a2 2 0 0 1 -2-2z"/></svg>

<?xml version="1.0" encoding="UTF-8"?><!DOCTYPE svg PUBLIC "-//W3C//DTD SVG 1.1//EN" "http://www.w3.org/Graphics/SVG/1.1/DTD/svg11.dtd"><svg xmlns="http://www.w3.org/2000/svg" xmlns:xlink="http://www.w3.org/1999/xlink" version="1.1" id="mdi-delete-empty" width="24" height="24" viewBox="0 0 24 24"><path d="M20.37,8.91L19.37,10.64L7.24,3.64L8.24,1.91L11.28,3.66L12.64,3.29L16.97,5.79L17.34,7.16L20.37,8.91M6,19V7H11.07L18,11V19A2,2 0 0,1 16,21H8A2,2 0 0,1 6,19Z" /></svg>
